svgs/light/spaghetti-monster-flying.svg

<svg xmlns="http://www.w3.org/2000/svg" viewBox="0 0 640 512"><!-- Font Awesome Pro 6.0.0-alpha2 by @fontawesome - https://fontawesome.com License - https://fontawesome.com/license (Commercial License) --><path d="M629.25 355.125C599.375 344.125 576.75 358.875 558.5 370.75C541.5 381.75 531.375 387.75 518.25 383C505.125 378.125 501.625 367.125 496.625 348C493.25 335.375 489.375 320.75 479.75 308.75C487.25 299.625 493.25 290.875 497.999 283.125C507.75 294.375 520.75 304 540.125 304C570.25 304 585 281.125 595.875 264.5C607 247.5 612.875 240 623.375 240C632.5 240 640 232.875 640 224S632.5 208 623.375 208C593.375 208 578.5 230.875 567.625 247.5C556.625 264.5 550.625 272 540.125 272C494.125 272 519.5 209.125 421 153.625L442.125 111.375C444.125 111.625 445.999 112 448 112C478.875 112 504 86.875 504 56S478.875 0 448 0S392 25.125 392 56C392 73.375 400.125 88.75 412.625 99L392 140.125C371.25 132.625 347.375 128 320 128S268.75 132.625 248 140.125L227.375 99C239.875 88.75 248 73.375 248 56C248 25.125 222.875 0 192 0S136 25.125 136 56S161.125 112 192 112C193.999 112 195.875 111.625 197.875 111.375L219 153.625C120.5 209.125 145.875 272 99.875 272C89.375 272 83.375 264.5 72.375 247.5C61.5 230.875 46.625 208 16.625 208C7.5 208 0 215.125 0 224S7.5 240 16.625 240C27.125 240 33 247.5 44.125 264.5C55 281.125 69.75 304 99.875 304C119.25 304 132.25 294.375 141.999 283.125C146.75 290.875 152.75 299.625 160.25 308.75C150.625 320.75 146.75 335.375 143.375 348C138.375 367.125 134.875 378.125 121.75 383C108.625 387.75 98.5 381.75 81.5 370.75C63.25 358.875 40.625 344.125 10.75 355.125C2.125 358.25 -2.125 367.5 1.125 375.75C4.375 384.125 13.999 388.25 22.5 385C35.625 380.25 45.875 386.25 62.875 397.25C76.5 406.125 92.75 416.75 112.75 416.75C119.25 416.75 126.25 415.5 133.625 412.875C163.5 401.875 170.25 376.375 175.625 356C178.125 346.375 180.25 338.875 183.5 333.125C202.875 350.5 228.25 366.25 260.125 375.5C247.625 425.5 223.75 478.375 192 478.375C183.125 478.375 176 485.875 176 495.125C176 504.5 183.125 512 192 512C252.5 512 281.25 424 291.625 382.125C300.625 383.25 309.999 384 320 384C329.999 384 339.375 383.25 348.375 382.125C358.75 424 387.5 512 448 512C456.875 512 464 504.5 464 495.125C464 485.875 456.875 478.375 448 478.375C416.25 478.375 392.375 425.5 379.875 375.5C411.75 366.25 437.125 350.5 456.5 333.125C459.625 338.875 461.875 346.375 464.375 355.875C469.75 376.375 476.5 401.875 506.375 412.875C513.75 415.5 520.75 416.75 527.25 416.75C547.25 416.75 563.5 406.125 577.125 397.25C594.125 386.25 604.375 380.25 617.5 385C625.999 388.25 635.625 384 638.875 375.75C642.125 367.5 637.875 358.25 629.25 355.125ZM448 32C461.25 32 472 42.75 472 56S461.25 80 448 80S424 69.25 424 56S434.75 32 448 32ZM192 80C178.75 80 168 69.25 168 56S178.75 32 192 32S216 42.75 216 56S205.25 80 192 80ZM320 352C223 352 177.625 283.75 163.25 256C177.5 228.375 222.875 160 320 160S462.5 228.375 476.75 256C462.375 283.75 417 352 320 352Z"/></svg>

<svg xmlns="http://www.w3.org/2000/svg" viewBox="0 0 640 512"><!--! Font Awesome Pro 6.0.0-alpha3 by @fontawesome - https://fontawesome.com License - https://fontawesome.com/license (Commercial License) --><path d="M629.3 355.1c-29.88-11-52.5 3.75-70.75 15.63c-17 11-27.12 17-40.25 12.25c-13.12-4.875-16.62-15.88-21.62-35c-3.375-12.62-7.25-27.25-16.87-39.25c7.5-9.125 13.5-17.88 18.25-25.63C507.8 294.4 520.8 304 540.1 304c30.12 0 44.88-22.88 55.75-39.5C607 247.5 612.9 240 623.4 240C632.5 240 640 232.9 640 224s-7.5-16-16.62-16c-30 0-44.88 22.88-55.75 39.5C556.6 264.5 550.6 272 540.1 272c-46 0-20.62-62.88-119.1-118.4l21.12-42.25C444.1 111.6 445.1 112 448 112c30.88 0 56-25.12 56-56S478.9 0 448 0s-56 25.12-56 56c0 17.38 8.125 32.75 20.62 43L392 140.1C371.2 132.6 347.4 128 320 128S268.8 132.6 248 140.1L227.4 99C239.9 88.75 248 73.38 248 56C248 25.12 222.9 0 192 0S136 25.12 136 56S161.1 112 192 112c1.999 0 3.875-.375 5.875-.625L219 153.6C120.5 209.1 145.9 272 99.88 272c-10.5 0-16.5-7.5-27.5-24.5C61.5 230.9 46.62 208 16.62 208C7.5 208 0 215.1 0 224s7.5 16 16.62 16c10.5 0 16.38 7.5 27.5 24.5C55 281.1 69.75 304 99.88 304c19.37 0 32.37-9.625 42.12-20.88C146.8 290.9 152.8 299.6 160.2 308.8c-9.625 12-13.5 26.62-16.87 39.25c-5 19.12-8.5 30.12-21.62 35c-13.13 4.75-23.25-1.25-40.25-12.25c-18.25-11.88-40.88-26.63-70.75-15.63c-8.625 3.125-12.88 12.38-9.625 20.63C4.375 384.1 13.1 388.2 22.5 385c13.12-4.75 23.38 1.25 40.38 12.25c13.62 8.875 29.88 19.5 49.88 19.5c6.5 0 13.5-1.25 20.87-3.875c29.88-11 36.63-36.5 42-56.88c2.5-9.625 4.625-17.12 7.875-22.88c19.38 17.38 44.75 33.12 76.63 42.38C247.6 425.5 223.8 478.4 192 478.4c-8.875 0-16 7.5-16 16.75C176 504.5 183.1 512 192 512c60.5 0 89.25-88 99.63-129.9C300.6 383.2 309.1 384 320 384c9.999 0 19.38-.7932 28.38-1.918C358.8 424 387.5 512 448 512c8.875 0 16-7.5 16-16.88c0-9.25-7.125-16.75-16-16.75c-31.75 0-55.63-52.88-68.13-102.9c31.88-9.25 57.25-25 76.63-42.38c3.125 5.75 5.375 13.25 7.875 22.75c5.375 20.5 12.12 46 42 57c7.375 2.625 14.38 3.875 20.88 3.875c20 0 36.25-10.63 49.88-19.5c17-11 27.25-17 40.38-12.25c8.499 3.25 18.12-1 21.38-9.25C642.1 367.5 637.9 358.2 629.3 355.1zM448 32c13.25 0 24 10.75 24 24S461.2 79.97 448 79.97S424 69.25 424 56S434.8 32 448 32zM192 79.97c-13.25 0-24-10.72-24-23.97S178.8 32 192 32s24 10.75 24 24S205.2 79.97 192 79.97zM320 352c-97 0-142.4-68.25-156.8-96C177.5 228.4 222.9 160 320 160s142.5 68.38 156.8 96C462.4 283.8 417 352 320 352z"/></svg>
